static/assets/template/assets/img/icons/essential/detailed/Buy.svg

<svg height="100" viewBox="0 0 150 100" width="150" xmlns="http://www.w3.org/2000/svg"><g fill="none" fill-rule="evenodd" transform="translate(1 2)"><path d="m115.7 60.2-106.4.2c-4.6 0-8.3-3.7-8.3-8.3l-.1-43.5c0-4.6 3.7-8.3 8.3-8.3l106.4-.2c4.6 0 8.3 3.7 8.3 8.3l.1 43.5c0 4.6-3.7 8.3-8.3 8.3z" fill-rule="nonzero"/><path d="m116.2 60.2-103.3.2c-4.3 0-7.8-3.5-7.8-7.8l-.1-39.3c0-4.3 3.5-7.8 7.8-7.8l103.3-.2c4.3 0 7.8 3.5 7.8 7.8l.1 39.3c0 4.3-3.5 7.8-7.8 7.8z" fill-rule="nonzero"/><g stroke-linecap="round" stroke-linejoin="round" stroke-width="3"><path d="m85.9 60.3-76.6.1c-4.6 0-8.3-3.7-8.3-8.3l-.1-43.5c0-4.6 3.7-8.3 8.3-8.3h16.6"/><path d="m95.7 60.2h-1"/><path d="m35.1.2 80.5-.1c4.6 0 8.3 3.7 8.3 8.3l.1 43.5c0 4.6-3.7 8.3-8.3 8.3h-11.9"/></g><g transform="translate(70 36)"><path d="m50.7 2c-1.9-1.9-4.9-1.9-6.7 0-1.7 1.7-1.8 4.3-.5 6.1l-1.5 1.5-2.6-2.6c-1.9-1.9-4.9-1.9-6.7 0-1.9 1.9-1.9 4.9 0 6.7l2.5 2.5-1.4 1.4-5.2-5.2c-2-2-5.2-2-7.2 0s-2 5.2 0 7.2l5.1 5.1-1.2 1.2-15.3-15.3c-2-2-5.2-2-7.2 0s-2 5.2 0 7.2l22.1 22.1 1.8 1.8 7.6 7.6-1.3 1.3-5.4-5.4c-4-4-10.4-4-14.4 0l13.3 13.3c.8.8 1.7 1.2 2.7 1.4 3.5.7 17.3-.3 23.7-.8 2.1-.2 4-1.1 5.5-2.6l14.7-14.7c4.9-4.9 4.9-12.8 0-17.7z" fill-rule="nonzero"/><path d="m50.2 1.6 22.2 22.2c4.9 4.9 4.9 12.8 0 17.7l-14.7 14.7c-1.5 1.5-3.4 2.4-5.5 2.6-6.4.5-20.2 1.6-23.7.8-1-.2-2-.6-2.7-1.4l-13.3-13.3c4-4 10.5-4 14.4 0l5.4 5.4 1.3-1.3-31.5-31.5c-2-2-2-5.2 0-7.2s5.2-2 7.2 0l15.3 15.3 1.2-1.2-5.1-5.1c-2-2-2-5.2 0-7.2s5.2-2 7.2 0l5.2 5.2 1.4-1.4-2.5-2.5c-1.9-1.9-1.9-4.9 0-6.7 1.9-1.9 4.9-1.9 6.7 0l2.6 2.6 1.5-1.5c-1.3-1.9-1.2-4.5.5-6.1 2.1-2 5.1-2 6.9-.1z" fill-rule="nonzero"/><g stroke-linecap="round" stroke-linejoin="round"><path d="m50.6 2c-1.9-1.8-4.8-1.8-6.7.1-1.7 1.7-1.8 4.3-.5 6.1l-1.5 1.5-2.6-2.6c-1.9-1.9-4.9-1.9-6.7 0-1.9 1.9-1.9 4.9 0 6.7l2.5 2.5-1.4 1.4-5.2-5.2c-2-2-5.2-2-7.2 0s-2 5.2 0 7.2l5.1 5.1-1.2 1.2-15.3-15.3c-2-2-5.2-2-7.2 0s-2 5.2 0 7.2l3.6 3.6" stroke-width="3.2"/><path d="m15 30.2 9.8 9.8 1.8 1.8 7.6 7.6-1.3 1.3-5.4-5.4c-4-4-10.4-4-14.4 0l13.3 13.3c.8.8 1.7 1.2 2.7 1.4 3.5.7 17.3-.3 23.7-.8 2.1-.2 4-1.1 5.5-2.6l14.7-14.7c4.9-4.9 4.9-12.8 0-17.7l-17.1-17.1" stroke-width="3"/><path d="m9.3 24.6.4.4" stroke-width="3"/></g></g><g fill-rule="nonzero" transform="translate(27 19)"><path d="m0 24.4v-24.3h10.9c5.2 0 8.3 3.1 8.3 6.4 0 3.6-3.1 5-3.1 5s4.3 1.4 4.3 5.7c0 3.6-3.5 7.1-8.8 7.1h-11.6zm6.6-19.1v4.2h3.6c1.4 0 2.3-.9 2.3-2.1s-.9-2.1-2.3-2.1zm4.5 13.9c1.6 0 2.6-1 2.6-2.4s-1-2.4-2.6-2.4h-4.5v4.9h4.5z"/><path d="m40.1 14.3v-14.2h6.6v14.2c0 6.1-4.7 10.8-11.1 10.8s-11.1-4.7-11.1-10.8v-14.2h6.6v14.2c0 2.8 2.1 4.9 4.5 4.9s4.5-2.1 4.5-4.9z"/><path d="m73.3.1-8.7 15.6v8.7h-6.6v-8.7l-8.7-15.6h7.1l4.9 9.4 4.9-9.4z"/></g><g fill-rule="nonzero" transform="translate(24 16)"><path d="m14 3.1c5.2 0 8.3 3.1 8.3 6.4 0 3.6-3.1 5-3.1 5s4.3 1.4 4.3 5.7c0 3.6-3.5 7.1-8.8 7.1h-11.7v-24.3h11zm-4.4 9.4h3.6c1.4 0 2.3-.9 2.3-2.1s-.9-2.1-2.3-2.1h-3.6zm0 9.7h4.5c1.6 0 2.6-1 2.6-2.4s-1-2.4-2.6-2.4h-4.5zm4.4-22.1h-11c-1.7 0-3 1.3-3 3v24.3c0 1.7 1.3 3 3 3h11.6c7.4 0 11.8-5.1 11.8-10.1 0-2.7-1.1-4.7-2.5-6.2.8-1.2 1.3-2.7 1.3-4.6.1-4.5-3.9-9.4-11.2-9.4z"/><path d="m49.7 3.1v14.2c0 6.1-4.7 10.8-11.1 10.8s-11.1-4.7-11.1-10.8v-14.2h6.6v14.2c0 2.8 2.1 4.9 4.5 4.9s4.5-2.1 4.5-4.9v-14.2zm0-3h-6.6c-1.7 0-3 1.3-3 3v14.2c0 1.1-.8 1.9-1.5 1.9s-1.5-.7-1.5-1.9v-14.2c0-1.7-1.3-3-3-3h-6.6c-1.7 0-3 1.3-3 3v14.2c0 7.8 6.1 13.8 14.1 13.8s14.1-5.9 14.1-13.8v-14.2c0-1.6-1.3-3-3-3z"/><path d="m76.3 3.1-8.7 15.6v8.7h-6.6v-8.7l-8.7-15.6h7.1l4.9 9.4 4.9-9.4zm0-3h-7.1c-1.1 0-2.1.6-2.7 1.6l-2.2 4.2-2.2-4.2c-.5-1-1.5-1.6-2.7-1.6h-7.1c-1.1 0-2 .6-2.6 1.5-.5.9-.6 2 0 3l8.3 14.9v7.9c0 1.7 1.3 3 3 3h6.6c1.7 0 3-1.3 3-3v-7.9l8.3-14.9c.5-.9.5-2.1 0-3-.6-.9-1.6-1.5-2.6-1.5z"/></g></g></svg>

<?xml version="1.0" encoding="UTF-8"?>
<svg width="150px" height="100px" viewBox="0 0 150 100" version="1.1" xmlns="http://www.w3.org/2000/svg" xmlns:xlink="http://www.w3.org/1999/xlink">
    <!-- Generator: Sketch 51.2 (57519) - http://www.bohemiancoding.com/sketch -->
    <title>Buy</title>
    <desc>Created with Sketch.</desc>
    <defs></defs>
    <g id="Page-1" stroke="none" stroke-width="1" fill="none" fill-rule="evenodd">
        <g id="Buy" transform="translate(1.000000, 2.000000)">
            <path d="M115.7,60.2 L9.3,60.4 C4.7,60.4 1,56.7 1,52.1 L0.9,8.6 C0.9,4 4.6,0.3 9.2,0.3 L115.6,0.1 C120.2,0.1 123.9,3.8 123.9,8.4 L124,51.9 C124,56.5 120.3,60.2 115.7,60.2 Z" id="Shape" class="fill-neutral" fill-rule="nonzero"></path>
            <path d="M116.2,60.2 L12.9,60.4 C8.6,60.4 5.1,56.9 5.1,52.6 L5,13.3 C5,9 8.5,5.5 12.8,5.5 L116.1,5.3 C120.4,5.3 123.9,8.8 123.9,13.1 L124,52.4 C124,56.7 120.5,60.2 116.2,60.2 Z" id="Shape" class="fill-primary-200" fill-rule="nonzero"></path>
            <path d="M85.9,60.3 L9.3,60.4 C4.7,60.4 1,56.7 1,52.1 L0.9,8.6 C0.9,4 4.6,0.3 9.2,0.3 L25.8,0.3" id="Shape" class="stroke-primary" stroke-width="3" stroke-linecap="round" stroke-linejoin="round"></path>
            <path d="M95.7,60.2 L94.7,60.2" id="Shape" class="stroke-primary" stroke-width="3" stroke-linecap="round" stroke-linejoin="round"></path>
            <path d="M35.1,0.2 L115.6,0.1 C120.2,0.1 123.9,3.8 123.9,8.4 L124,51.9 C124,56.5 120.3,60.2 115.7,60.2 L103.8,60.2" id="Shape" class="stroke-primary" stroke-width="3" stroke-linecap="round" stroke-linejoin="round"></path>
            <g id="Group" transform="translate(70.000000, 36.000000)">
                <path d="M50.7,2 C48.8,0.1 45.8,0.1 44,2 C42.3,3.7 42.2,6.3 43.5,8.1 L42,9.6 L39.4,7 C37.5,5.1 34.5,5.1 32.7,7 C30.8,8.9 30.8,11.9 32.7,13.7 L35.2,16.2 L33.8,17.6 L28.6,12.4 C26.6,10.4 23.4,10.4 21.4,12.4 C19.4,14.4 19.4,17.6 21.4,19.6 L26.5,24.7 L25.3,25.9 L10,10.6 C8,8.6 4.8,8.6 2.8,10.6 C0.8,12.6 0.8,15.8 2.8,17.8 L24.9,39.9 L26.7,41.7 L34.3,49.3 L33,50.6 L27.6,45.2 C23.6,41.2 17.2,41.2 13.2,45.2 L26.5,58.5 C27.3,59.3 28.2,59.7 29.2,59.9 C29.2,59.9 29.2,59.9 29.2,59.9 C32.7,60.6 46.5,59.6 52.9,59.1 C55,58.9 56.9,58 58.4,56.5 L73.1,41.8 C78,36.9 78,29 73.1,24.1 L50.7,2 Z" id="Shape" class="fill-neutral" fill-rule="nonzero"></path>
                <path d="M50.2,1.6 L72.4,23.8 C77.3,28.7 77.3,36.6 72.4,41.5 L57.7,56.2 C56.2,57.7 54.3,58.6 52.2,58.8 C45.8,59.3 32,60.4 28.5,59.6 C28.5,59.6 28.5,59.6 28.5,59.6 C27.5,59.4 26.5,59 25.8,58.2 L12.5,44.9 C16.5,40.9 23,40.9 26.9,44.9 L32.3,50.3 L33.6,49 L2.1,17.5 C0.1,15.5 0.1,12.3 2.1,10.3 C4.1,8.3 7.3,8.3 9.3,10.3 L24.6,25.6 L25.8,24.4 L20.7,19.3 C18.7,17.3 18.7,14.1 20.7,12.1 C22.7,10.1 25.9,10.1 27.9,12.1 L33.1,17.3 L34.5,15.9 L32,13.4 C30.1,11.5 30.1,8.5 32,6.7 C33.9,4.8 36.9,4.8 38.7,6.7 L41.3,9.3 L42.8,7.8 C41.5,5.9 41.6,3.3 43.3,1.7 C45.4,-0.3 48.4,-0.3 50.2,1.6 Z" id="Shape" class="fill-neutral" fill-rule="nonzero"></path>
                <path d="M50.6,2 C48.7,0.2 45.8,0.2 43.9,2.1 C42.2,3.8 42.1,6.4 43.4,8.2 L41.9,9.7 L39.3,7.1 C37.4,5.2 34.4,5.2 32.6,7.1 C30.7,9 30.7,12 32.6,13.8 L35.1,16.3 L33.7,17.7 L28.5,12.5 C26.5,10.5 23.3,10.5 21.3,12.5 C19.3,14.5 19.3,17.7 21.3,19.7 L26.4,24.8 L25.2,26 L9.9,10.7 C7.9,8.7 4.7,8.7 2.7,10.7 C0.7,12.7 0.7,15.9 2.7,17.9 L6.3,21.5" id="Shape" class="stroke-primary" stroke-width="3.2" stroke-linecap="round" stroke-linejoin="round"></path>
                <path d="M15,30.2 L24.8,40 L26.6,41.8 L34.2,49.4 L32.9,50.7 L27.5,45.3 C23.5,41.3 17.1,41.3 13.1,45.3 L26.4,58.6 C27.2,59.4 28.1,59.8 29.1,60 C29.1,60 29.1,60 29.1,60 C32.6,60.7 46.4,59.7 52.8,59.2 C54.9,59 56.8,58.1 58.3,56.6 L73,41.9 C77.9,37 77.9,29.1 73,24.2 L55.9,7.1" id="Shape" class="stroke-primary" stroke-width="3" stroke-linecap="round" stroke-linejoin="round"></path>
                <path d="M9.3,24.6 L9.7,25" id="Shape" class="stroke-primary" stroke-width="3" stroke-linecap="round" stroke-linejoin="round"></path>
            </g>
            <g id="Group" transform="translate(27.000000, 19.000000)" class="fill-neutral" fill-rule="nonzero">
                <path d="M0,24.4 L0,0.1 L10.9,0.1 C16.1,0.1 19.2,3.2 19.2,6.5 C19.2,10.1 16.1,11.5 16.1,11.5 C16.1,11.5 20.4,12.9 20.4,17.2 C20.4,20.8 16.9,24.3 11.6,24.3 L0,24.3 L0,24.4 Z M6.6,5.3 L6.6,9.5 L10.2,9.5 C11.6,9.5 12.5,8.6 12.5,7.4 C12.5,6.2 11.6,5.3 10.2,5.3 L6.6,5.3 Z M11.1,19.2 C12.7,19.2 13.7,18.2 13.7,16.8 C13.7,15.4 12.7,14.4 11.1,14.4 L6.6,14.4 L6.6,19.3 L11.1,19.3 L11.1,19.2 Z" id="Shape"></path>
                <path d="M40.1,14.3 L40.1,0.1 L46.7,0.1 L46.7,14.3 C46.7,20.4 42,25.1 35.6,25.1 C29.2,25.1 24.5,20.4 24.5,14.3 L24.5,0.1 L31.1,0.1 L31.1,14.3 C31.1,17.1 33.2,19.2 35.6,19.2 C38,19.2 40.1,17.1 40.1,14.3 Z" id="Shape"></path>
                <polygon id="Shape" points="73.3 0.1 64.6 15.7 64.6 24.4 58 24.4 58 15.7 49.3 0.1 56.4 0.1 61.3 9.5 66.2 0.1"></polygon>
            </g>
            <g id="Group" transform="translate(24.000000, 16.000000)" class="fill-primary" fill-rule="nonzero">
                <path d="M14,3.1 C19.2,3.1 22.3,6.2 22.3,9.5 C22.3,13.1 19.2,14.5 19.2,14.5 C19.2,14.5 23.5,15.9 23.5,20.2 C23.5,23.8 20,27.3 14.7,27.3 L3,27.3 L3,3 L14,3 L14,3.1 Z M9.6,12.5 L13.2,12.5 C14.6,12.5 15.5,11.6 15.5,10.4 C15.5,9.2 14.6,8.3 13.2,8.3 L9.6,8.3 L9.6,12.5 Z M9.6,22.2 L14.1,22.2 C15.7,22.2 16.7,21.2 16.7,19.8 C16.7,18.4 15.7,17.4 14.1,17.4 L9.6,17.4 L9.6,22.2 Z M14,0.1 L3,0.1 C1.3,0.1 0,1.4 0,3.1 L0,27.4 C0,29.1 1.3,30.4 3,30.4 L14.6,30.4 C22,30.4 26.4,25.3 26.4,20.3 C26.4,17.6 25.3,15.6 23.9,14.1 C24.7,12.9 25.2,11.4 25.2,9.5 C25.3,5 21.3,0.1 14,0.1 Z" id="Shape"></path>
                <path d="M49.7,3.1 L49.7,17.3 C49.7,23.4 45,28.1 38.6,28.1 C32.2,28.1 27.5,23.4 27.5,17.3 L27.5,3.1 L34.1,3.1 L34.1,17.3 C34.1,20.1 36.2,22.2 38.6,22.2 C41,22.2 43.1,20.1 43.1,17.3 L43.1,3.1 L49.7,3.1 Z M49.7,0.1 L43.1,0.1 C41.4,0.1 40.1,1.4 40.1,3.1 L40.1,17.3 C40.1,18.4 39.3,19.2 38.6,19.2 C37.9,19.2 37.1,18.5 37.1,17.3 L37.1,3.1 C37.1,1.4 35.8,0.1 34.1,0.1 L27.5,0.1 C25.8,0.1 24.5,1.4 24.5,3.1 L24.5,17.3 C24.5,25.1 30.6,31.1 38.6,31.1 C46.6,31.1 52.7,25.2 52.7,17.3 L52.7,3.1 C52.7,1.5 51.4,0.1 49.7,0.1 Z" id="Shape"></path>
                <path d="M76.3,3.1 L67.6,18.7 L67.6,27.4 L61,27.4 L61,18.7 L52.3,3.1 L59.4,3.1 L64.3,12.5 L69.2,3.1 L76.3,3.1 Z M76.3,0.1 L69.2,0.1 C68.1,0.1 67.1,0.7 66.5,1.7 L64.3,5.9 L62.1,1.7 C61.6,0.7 60.6,0.1 59.4,0.1 L52.3,0.1 C51.2,0.1 50.3,0.7 49.7,1.6 C49.2,2.5 49.1,3.6 49.7,4.6 L58,19.5 L58,27.4 C58,29.1 59.3,30.4 61,30.4 L67.6,30.4 C69.3,30.4 70.6,29.1 70.6,27.4 L70.6,19.5 L78.9,4.6 C79.4,3.7 79.4,2.5 78.9,1.6 C78.3,0.7 77.3,0.1 76.3,0.1 Z" id="Shape"></path>
            </g>
        </g>
    </g>
</svg>
